assets/lettere/trame/T.svg

<?xml version="1.0" encoding="UTF-8"?>
<svg id="Livello_1" data-name="Livello 1" xmlns="http://www.w3.org/2000/svg" viewBox="0 0 116.56 144.84">
  <defs>
    <style>
      .cls-1 {
        fill: #231f20;
      }
    </style>
  </defs>
  <path class="cls-1" d="M62.5,29.99v4.21s2.31.11,6.12.24c.87.03,2.4.22,3.55.38.84.12,1.46.83,1.46,1.68v67.35c0,3.31,1.18,6.12,3.52,8.39,2.35,2.27,5.09,3.41,8.28,3.41h31.15v29.18h-32.82c-8.83,0-16.57-1.98-23.26-5.9-6.69-3.94-11.91-9.22-15.63-15.83-3.71-6.63-5.58-14.07-5.58-22.35V36.5c0-.85.62-1.57,1.46-1.68,1.14-.16,2.68-.35,3.55-.38,3.81-.13,6.12-.24,6.12-.24v-4.21s-2.31-.11-6.12-.24c-1.5-.06-5.01-.59-5.01-.59H0V0h116.58v29.16h-42.95s-3.51.53-5.01.59c-3.81.13-6.12.24-6.12.24Z"/>
</svg>

<svg id="Livello_1" data-name="Livello 1" xmlns="http://www.w3.org/2000/svg" viewBox="0 0 116.58 144.83"><defs><style>.cls-1{fill:#231f20;}</style></defs><path class="cls-1" d="M62.5,30V34.2s2.31.11,6.12.24c.87,0,2.4.22,3.55.38a1.69,1.69,0,0,1,1.46,1.68v67.35a11.26,11.26,0,0,0,3.52,8.39,11.5,11.5,0,0,0,8.28,3.41h31.15v29.18H83.76a45.13,45.13,0,0,1-23.26-5.9A42.1,42.1,0,0,1,44.87,123.1a45,45,0,0,1-5.58-22.35V36.5a1.69,1.69,0,0,1,1.46-1.68c1.15-.16,2.68-.35,3.55-.38,3.81-.13,6.12-.24,6.12-.24V30s-2.31-.11-6.12-.24c-1.5-.06-5-.59-5-.59H0V0H116.58V29.16H73.63s-3.51.53-5,.59C64.81,29.88,62.5,30,62.5,30Z"/></svg>
